X: 2968
T: Basket Of Oysters
R: reel
M: 4/4
K: Dmajor
ed|c ~A3 (3.B.c.d ed|cAAG FDDd|c ~A3 (3.B.c.d eg|fdec d2 ed|
c ~A3 cded|cABG FADd|c ~A3 BBeg|fdec d3 A||
dfaf ggeg|fded c ~A3|fgaf gbag|fdec d2(3.e.f.g|
~a3 f ggec|d2 ed c ~A3|fgaf gbag|fdec d4||

